X:1
T:Aus tiefer Not schrei ich zu dir
T:Samuel Scheidt
T:Aus tiefer Not schrei ich zu dir
C:Samuel Scheidt
%%score [ 1 2 3 ] 4
L:1/8
Q:1/4=120
M:4/2
K:F
V:1 treble nm="Cantus" snm="S"
V:2 treble-8 nm="Tenor" snm="T"
V:3 bass nm="Bassus" snm="B"
V:4 bass nm="Bassus generalis" snm="BC"
V:1
 z16 | F4 E2 F2 G4 G4 | F2 G2 A4 z8 | z4 B4 A2 B2 c4 | c4 B2 c2 d8 | z8 z4 G4 | F2 G2 A4 A4 G2 A2 | %7
w: |Aus tie- fer Not schrei|ich zu dir,|aus tie- fer Not|schrei ich zu dir,|aus|tie- fer Not schrei ich zu|
 B4 z4 F4 E2 F2 | G4 G4 F2 G2 A4 | z4 G4 F8 | G8 A8 | z2 B2 A2 G2 F8 | z8 z2 A2 G2 F2 | %13
w: dir, aus tie- fer|Not schrei ich zu dir,|schrei ich|zu dir,|Herr Gott, er- hör,|Herr Gott, er-|
 E4 z4 z2 B2 A2 G2 | F8 E2 F2 G2 F2 | z8 A2 B2 c2 B2 | z4 z2 B2 A2 G2 F4 | E2 F2 G4 F8 | %18
w: hör, Herr Gott, er-|hör mein * Ru- fen,|mein * Ru- fen,|Herr Gott, er- hör|mein * Ru- fen.|
 z4 F4 E2 F2 G2 G2 | z4 F3 G A8 | z4 z2 B2 A2 G2 F2 EF | G2 F2 z2 B2 A2 G2 F4 | z2 c4 B4 A2 G4- | %23
w: Dein gnä- dig Oh- ren|kehr zu mir|und mei- ner Bitt sie *|öf- fen, und mei- ner Bitt,|und mei- ner Bitt|
 G2 ^FG A4 G8 | z2 B4 A4 G2 F4- | F2 EF G4 F4 z2 F2 | E4 F4 G4 G4 | F4 G4 A8 | z8 B8 | A4 G4 F8 | %30
w: * sie * öf- fen,|und mei- ner Bitt|* sie * öf- fen, dein|gnä- dig Oh- ren|kehr zu mir|und|mei- ner Bitt|
 E4 F4 G8 | F8 z2 F2 G2 B2 | A4 z2 G2 A2 c2 B4 | z16 | z2 F2 G2 B2 A4 z2 F2 | %35
w: sie * öf-|fen; denn so du|willst, denn so du willst,||denn so du willst das|
 G2 E2 D4 z2 A2 D2 E2 | ^F6 A2 D4 G4 | ^F4 z2 F2 G4 E4 | D4 z2 A2 F2 F2 c2 d2 | _e2 c2 B4 z8 | %40
w: se- hen an, denn so du|willst das se- hen|an, das se- hen|an, was Sünd und Un- recht|ist ge- tan,|
 z2 F2 G2 A2 B2 G2 F4 | z8 DE F4 E2 | F4 z2 E2 C4 C4 | G4 A4 B4 G4 | F8 z2 c2 A2 B2 | %45
w: und Un- recht ist ge- tan,|ist * * ge-|tan, was Sünd und|Un- recht ist ge-|tan, wer kann, Herr,|
 G3 F E2 F2 G4 F4 | z16 | z8 z2 B2 A2 B2 | G3 F E2 F2 G4 F4 | z2 G2 E2 F2 D3 C =B,2 C2 | D4 C4 z8 | %51
w: für * * dir blei- ben,||wer kann, Herr,|für * * dir blei- ben,|wer kann, Herr, für * * dir|blei- ben,|
[M:2/2] z8 |[M:3/4] c2 A2 B2 |[M:6/4] G3 F E2 F2 G4 | F6 z2 z2 z2 |[M:3/4] z6 |[M:2/2] z4 c4 | %57
w: |wer kann, Herr,|für * * dir blei-|ben,||wer|
[M:4/2] A12 B4- | B4 G8 F4 | E4 F4 G8 | F16 |] %61
w: kann, Herr,|* für *|* dir blei-|ben?|
V:2
 z16 | z16 | B4 A2 B2 c4 c4 | B2 c2 d4 z4 F4 | E2 F2 G4 G4 F2 G2 | A8 x8 | z4 F4 E2 F2 G4 | %7
w: ||Aus tie- fer Not schrei|ich zu dir, aus|tie- fer Not schrei ich zu|dir,|aus tie- fer Not|
 G4 F2 G2 A8 | z4 z2 G2 d2 d2 ^c4 | z4 d4 c4 F4- | F4 E4 F8 | z8 z2 B2 A2 G2 | F8 z2 c2 B2 A2 | %13
w: schrei ich zu dir,|schrei ich zu dir,|schrei ich zu|* dir, *|Herr Gott, er-|hör, Herr Gott, er-|
 G8 z4 z2 B2 | A2 G2 F4 z4 E2 F2 | G2 F2 z4 z4 A2 B2 | c2 B2 z2 d2 c2 B2 A4 | G2 F4 E2 F8 | %18
w: hör, Herr|Gott, er- hör mein *|Ru- fen, mein *|Ru- fen, Herr Gott, er- hör|mein Ru- * fen.|
 B4 A3 B c2 c2 z4 | B3 c d4 z4 z2 f2 | e2 d2 c2 B2 c4 F2 c2 | d2 c2 z4 z8 | z4 z2 F2 E2 F2 E2 D2 | %23
w: Dein gnä- dig Oh- ren|kehr zu mir und|mei- ner Bitt sie öf- fen, sie|öf- fen,|und mei- ner Bitt sie|
 D2 G4 ^F2 G8 | z4 z2 E2 D6 C2 | C2 F2 F2 E2 F8 | z8 z2 c2 =B2 c2 | d2 d2 cd e2 z8 | z16 | %29
w: öf- * * fen,|und mei- ner|Bitt sie öf- * fen,|dein gnä- dig|Oh- ren kehr zu mir||
 z2 f2 e2 d2 c8 | z2 c2 B2 A2 G2 EF G4 | A8 z4 z2 G2 | A2 c2 B4 z2 F2 G2 B2 | %33
w: und mei- ner Bitt,|und mei- ner Bitt sie * öf-|fen; denn|so du willst, denn so du|
 A2 z2 z2 F2 G2 E2 D4 | z4 z2 B2 c2 _e2 d4 | z2 c2 d2 B2 A2 ^F2 G2 B2 | A6 ^F2 G4 E4 | %37
w: willst das se- hen an,|denn so du willst|das se- hen an, denn so du|willst das se- hen|
 D4 z2 A2 Bc d4 ^c2 | d4 z4 z2 A2 F2 F2 | c2 A2 B2 G2 F4 z2 c2 | _e2 dc B2 c2 d2 e4 d2 | %41
w: an, das se- * * hen|an, was Sünd und|Un- recht ist ge- tan, was|Sünd und * Un- recht ist * ge-|
 _e2 e2 c4 B4 z4 | z2 A2 G2 G2 G8- | G4 c4 G4 B4 | A8 z8 | z8 z2 c2 A2 B2 | G3 F E2 F2 G4 F4 | %47
w: tan, ist ge- tan,|was Sünd und Un-|* recht ist ge-|tan,|wer kann, Herr,|für * * dir blei- ben,|
 z8 z2 G2 C2 D2 | E3 F G2 F2 F2 E2 F4 | z16 | z2 G2 G2 A2 A2 Bc d2 c2 |[M:2/2] c2 =B2 c4 | %52
w: wer kann, Herr,|für * * dir blei- * ben,||wer kann, Herr, für * * * dir|blei- * ben,|
[M:3/4] z6 |[M:6/4] z12 | c2 A2 B2 G3 F E2 |[M:3/4] F2 G4 |[M:2/2] F8 |[M:4/2] z4 c4 F8 | %58
w: ||wer kann, Herr, für * *|dir blei-|ben,|wer kann,|
 G4 B8 A4 | G4 F8 E4 | F16 |] %61
w: Herr, für dir|blei- * *|ben?|
V:3
 F,,4 E,,2 F,,2 G,,4 G,,4 | F,,2 G,,2 A,,4 z8 | z8 F,4 E,2 F,2 | G,4 G,4 F,2 G,2 A,4 | z8 z4 B,,4 | %5
w: Aus tie- fer Not schrei|ich zu dir,|aus tie- fer|Not schrei ich zu dir,|aus|
 A,,2 B,,2 C,4 C,4 B,,2 C,2 | D,8 z4 C,4 | B,,2 C,2 D,4 D,4 C,2 D,2 | _E,4 z2 C,2 D,2 B,,2 A,,4 | %9
w: tie- fer Not schrei ich zu|dir, aus|tie- fer Not schrei ich zu|dir, schrei ich zu dir,|
 z4 B,,4 A,,8 | G,,8 F,,8 | z16 | z2 F,2 E,2 D,2 C,8 | z2 C,2 B,,2 A,,2 G,,6 G,,2 | D,8 C,4 z4 | %15
w: schrei ich|zu dir,||Herr Gott, er- hör,|Herr Gott, er- hör mein|Ru- fen,|
 E,2 F,2 G,2 F,2 z8 | A,,2 B,,2 C,2 B,,2 z2 G,,2 A,,G,,A,,B,, | C,8 F,,8 | z16 | z16 | %20
w: mein * Ru- fen,|mein * Ru- fen, mein Ru- * * *|* fen.|||
 z2 B,2 A,2 G,2 F,2 _E,2 D,2 C,2 | B,,2 A,,B,, C,2 B,,2 z4 z2 F,2 | E,4 D,4 C,6 =B,,C, | %23
w: und mei- ner Bitt, und mei- ner|Bitt sie * öf- fen, und|mei- ner Bitt sie *|
 D,8 G,,4 z2 _E,2 | D,4 C,4 B,,6 A,,B,, | C,8 F,,2 B,,2 A,,2 B,,2 | C,2 C,2 B,,C, D,2 z8 | %27
w: öf- fen, und|mei- ner Bitt sie *|öf- fen, dein gnä- dig|Oh- ren kehr zu mir|
 z8 z2 D,2 ^C,2 D,2 | E,2 E,2 D,E, F,2 z2 B,2 A,2 G,2 | F,4 z4 z2 F,2 E,2 D,2 | C,4 z4 z2 C,2 C,4 | %31
w: dein gnä- dig|Oh- ren kehr zu mir und mei- ner|Bitt, und mei- ner|Bitt sie öf-|
 F,,8 z8 | z2 F,,2 G,,2 B,,2 A,,4 z2 B,,2 | C,2 _E,2 D,4 z2 C,2 D,2 B,,2 | A,,4 z4 z8 | %35
w: fen;|denn so du willst, denn|so du willst das se- hen|an,|
 z8 z2 D,2 B,,2 G,,2 | D,6 D,2 B,,4 C,4 | D,6 D,2 G,,4 A,,4 | D,4 z4 z8 | z8 z2 A,,2 F,,2 F,,2 | %40
w: denn so du|willst das se- hen|an, das se- hen|an,|was Sünd und|
 C,2 D,2 _E,2 C,2 B,,8 | z8 z2 B,,2 G,,4 | F,,2 F,,2 C,2 C,2 C,4 F,,4 | E,,12 E,,4 | F,,8 z8 | %45
w: Un- recht ist ge- tan,|ist ge-|tan, was Sünd und Un- recht|ist ge-|tan,|
 z16 | z8 z2 C,2 A,,2 B,,2 | G,,3 F,, E,,2 F,,2 G,,4 F,,4 | z2 C,4 C,2 C,4 F,,4 | z16 | %50
w: |wer kann, Herr,|für * * dir blei- ben,|für dir blei- ben,||
 z2 G,2 E,2 F,2 D,3 C, =B,,2 C,2 |[M:2/2] D,4 C,4 |[M:3/4] z6 |[M:6/4] z12 | %54
w: wer kann, Herr, für * * dir|blei- ben,|||
 z2 F,2 D,2 _E,2 C,3 B,, |[M:3/4] A,,2 B,,2 C,2 |[M:2/2] F,,8 |[M:4/2] z4 F,4 D,8 | _E,8 C,8- | %59
w: wer kann, Herr, für *|* dir blei-|ben,|wer kann,|Herr, für|
 C,4 C,4 C,8 | F,,16 |] %61
w: * dir blei-|ben?|
V:4
 F,,4 E,,2 F,,2 G,,4 G,,4 | F,,2 G,,2 A,,4 G,,4 G,,4 | D,2 E,2 F,8 E,4 | G,4 G,4 F,8 | %4
w: * ^ * * *||^ * * ^||
 E,2 F,2 G,4 G,,2 A,,2 B,,4 | A,,2 B,,2 C,4 C,4 B,,2 C,2 | D,8 C,8 | B,,4 D,8 C,2 D,2 | %8
w: |^ * ^ * ^ *||^ * ^ *|
 _E,4 C,4 D,2 B,,2 A,,4 | D,4 B,,4 A,,8 | G,,8 F,,8 | B,,4 C,4 D,2 B,2 A,2 G,2 | %12
w: * * * ^ X|X ^ ^|||
 F,2 F,2 E,2 D,2 C,8 | C,4 B,,2 A,,2 G,,8 | D,8 C,6 F,2 | E,2 F,2 G,2 F,2 E,8 | %16
w: |* ^ * *||^ * * ^ *|
 A,,2 B,,2 C,2 B,,2 F,,2 G,,2 A,,4 | C,8 F,,8 | B,4 A,3 B, C2 F,2 E,3 F, | G,4 D,4 F,4 A,4 | %20
w: ^ * Z * * * ^||^ * * * * ^ *|* * * ^|
 C2 B,2 A,2 G,2 F,2 _E,2 D,2 C,2 | B,,2 A,,2 C,2 B,,2 F,8 | E,4 D,4 C,6 =B,,2 | D,8 G,,4 _E,4 | %24
w: * * ^ * * ^ * *|^ ^ * * *|||
 D,4 C,4 B,,6 A,,2 | C,8 F,,2 B,,2 A,,2 B,,2 | C,2 C,2 B,,2 D,2 C,2 C2 =B,2 C2 | %27
w: |* * * ^ *|* * * * * * ^ *|
 D4 C4 F,2 D,2 ^C,2 D,2 | E,4 D,2 F,2 B,,2 B,2 A,2 G,2 | F,4 C,2 B,,2 A,,2 F,2 E,2 D,2 | %30
w: * * * * ^ *|^ * * * * * *|* * ^ ^ * * *|
 C,2 C2 B,2 A,2 G,2 C,2 C,4 | F,,8 F,4 E,2 G,2 | F,2 F,,2 G,,2 B,,2 A,,4 G,2 B,,2 | %33
w: * * * ^ Y * *|* * ^ *||
 C,2 _E,2 D,4 C,4 D,2 B,,2 | A,,4 G,,4 F,,4 B,,4 | B,,2 C,2 G,2 G,,2 D,4 B,,2 G,,2 | %36
w: ^ ^ * * * ^||^ * * * X ^ *|
 D,6 D,2 B,,4 C,4 | D,6 D,2 G,,4 A,,4 | D,4 F,4 F,8 | C2 A,2 B,2 G,2 F,2 A,,2 F,,2 F,,2 | %40
w: X X ^ *|X X * *|X * *|Z ^ * ^ * ^ * *|
 C,2 D,2 _E,2 C,2 B,,8 | _E,4 F,4 B,,4 G,,4 | F,,4 C,4 C,4 F,,4 | E,,16 | F,,8 F,,6 B,,2 | %45
w: |||||
 C,8 C,4 F,2 D,2 | E,3 D, C,2 D,2 C,4 A,,2 B,,2 | G,,3 F,, E,,2 F,,2 G,,4 F,,4 | C,8 C,4 F,,4 | %49
w: * * * ^|^ * * * * ^ *|* * ^ * & *||
 C,6 F,2 G,8 | G,4 E,2 F,2 D,3 C, =B,,2 C,2 |[M:2/2] D,4 C,4 |[M:3/4] C,2 F,2 B,,2 | %53
w: ||||
[M:6/4] C,6 A,,2 B,,2 C,2 | F,,2 F,2 D,2 _E,2 C,4 |[M:3/4] A,,2 B,,2 C,2 |[M:2/2] F,,8 | %57
w: * ^ ^ *|* * ^ * *|^ ^ *||
[M:4/2] F,,4 F,4 D,8 | _E,8 C,8- | C,16 | F,,16 |] %61
w: ||||

